X:1
T:Standin In The Need of Prayer
T:07-View de Land
T:Copyright 1918 by Homer A. Rodeheaver
T:Rodeheaver's Plantation Melodies
T:Rodeheaver's Plantation Melodies
Z:Rodeheaver's Plantation Melodies
%%score [ 1 2 3 4 ]
L:1/8
Q:1/4=100
M:4/4
K:D
V:1 treble nm="Soprano" snm="S."
V:2 treble nm="Alto" snm="A."
V:3 bass nm="Tenor" snm="T."
V:4 bass nm="Bass" snm="B."
V:1
 D2 | F/-F/G/-G/ AA | B<d A2 | G>F E2 | F>E DD | FGAA | B/A/B Ad | d>d e/d/c | d2 :: d2 | d d2 B | %11
w: I'm|born- * of- * God, I|know I am;||* * * And|you de- ny it|if- a you can. *|||||
w: I|want to go to Hea- ven|when I die;||* * * To|shout sal- va- tion|as- a I fly. *|||||
 A2 F2 | G>F E2 | F>E D2 | d d2 B | A2 Fd | d>d e/d/c | d2 :| %18
w: |||||||
w: |||||||
V:2
 z2 | z4 | z4 | E>D C2 | D>C D z | z4 | z2 z F | F>F G/F/E | F2 :: F2 | F F2 G | F2 D2 | E>D C2 | %13
w: |||View de land,|view de land;||Go|view de hea- v'n- ly|land.|Oh,|way o- ver|Jor- dan,|View de land,|
 D>C D2 | F F2 G | F2 DF | F>F G/F/E | F2 :| %18
w: view de land;|Way o- ver|Jor- dan, Go|view de hea- v'n- ly|land.|
V:3
 z2 | z4 | z4 | A,>A, A,2 | A,>G, [F,A,] z | z4 | z2 z A, | A,>A, A,A, | A,2 :: D2 | D D2 D | %11
 D2 A,2 | A,>A, A,2 | A,>G, F,2 | D D2 D | D2 A,A, | A,>A, A,A, | A,2 :| %18
V:4
 z2 | z4 | z4 | A,,>A,, A,,2 | D,>A,, D, z | z4 | z2 z D, | D,>D, A,A,, | D,2 :: D,2 | D, D,2 D, | %11
 D,2 D,2 | A,,>A,, A,,2 | D,>D, D,2 | %14
"_1. I'm born to God, I know I am. View de land, view de land. \n    And you deny it if-a you can. Go view de heav'nly land.\n    I want to go to heaven when I die. View de land, view de land. \n    To shout salvation as-a I fly. Go view de heav'nly land.\n\n2. What kind o' shoes is dem-a you wear?. View de land, view de land. \n    Dat you can walk upon-a de air. Go view de heav'nly land.\n    Dem shoes I wear am de gospel shoes. View de land, view de land.\n    An' you can wear dem ef-a you choose. Go view de heav'nly land.\n\n3. Der' is a tree in Paradise. View de land, view de land.\n    De Christian he call it the tree ob life. Go view de heav'nly land.\n    I specta to eat de fruit off o' dat tree. View de land, view de land.\n    Ef busy old Satan will let-a me be. Go view de heav'nly land.\n\n4. You say yer Jesus set-a you free. View de land, view de land.\n    Why don't you let-a neighbor be? Go view de heav'nly land.\n    You say you're aiming for de skies. View de land, view de land.\n    Why don't you stop-a your telling lies? Go view de heav'nly land." D, D,2 D, | %15
 D,2 D,D, | A,>A, A,,A,, | D,2 :| %18

